src/assets/images/iconTwo.svg

<svg width="33" height="32" viewBox="0 0 33 32" fill="none" xmlns="http://www.w3.org/2000/svg">
<g clip-path="url(#clip0_102_230)">
<path d="M16.0785 25.8457C13.1797 25.8457 10.6837 27.9049 9.61719 30.8321C9.73915 30.8859 9.86395 30.9398 9.98875 30.9909C10.9928 28.2084 13.3442 26.2513 16.0785 26.2513C18.8127 26.2513 21.1641 28.2084 22.1682 30.9909C22.293 30.9398 22.4178 30.8859 22.5397 30.8321C21.4732 27.9049 18.9801 25.8457 16.0785 25.8457Z" fill="#E23C18"/>
<path d="M16.0798 21.5312C11.7345 21.5312 7.97912 24.5208 6.24609 28.8264C6.39075 28.937 6.53824 29.0476 6.68573 29.1554C8.31381 24.9746 11.9103 22.0617 16.0798 22.0617C20.2493 22.0617 23.843 24.9746 25.4739 29.1554C25.6214 29.0476 25.7689 28.9399 25.9135 28.8264C24.1805 24.5208 20.4251 21.5312 16.0798 21.5312Z" fill="#E23C18"/>
<path d="M16.0801 23.6865C12.4184 23.6865 9.26715 26.2648 7.88867 29.9407C8.02482 30.0202 8.16096 30.0996 8.29711 30.1762C9.59333 26.6392 12.5942 24.1545 16.0801 24.1545C19.566 24.1545 22.5669 26.6392 23.8631 30.1762C24.0021 30.0996 24.1383 30.0202 24.2716 29.9407C22.8931 26.2648 19.7419 23.6865 16.0801 23.6865Z" fill="#E23C18"/>
<path d="M16.0787 28C14.0138 28 12.2354 29.4409 11.4355 31.5001C11.5433 31.5341 11.6539 31.5625 11.7646 31.5937C12.5162 29.6763 14.1641 28.3404 16.0787 28.3404C17.9932 28.3404 19.6383 29.6763 20.3928 31.5937C20.5034 31.5625 20.6141 31.5341 20.7218 31.5001C19.9248 29.4409 18.1464 28 16.0787 28Z" fill="#E23C18"/>
<path d="M16.0785 3.21877C21.0535 3.21877 25.7165 4.80714 29.7272 7.56694C29.1826 6.69901 28.5614 5.88497 27.8665 5.139C24.2785 3.20175 20.2877 2.12109 16.0814 2.12109C11.875 2.12109 7.88139 3.20459 4.29621 5.139C3.6013 5.88497 2.98013 6.69901 2.43555 7.56694C6.44335 4.80714 11.1064 3.21877 16.0842 3.21877H16.0785Z" fill="#E23C18"/>
<path d="M16.0786 30.1562C14.9242 30.1562 13.9173 30.8767 13.3613 31.9488C13.4578 31.9659 13.5514 31.9857 13.6478 31.9999C14.164 31.0582 15.0603 30.4342 16.0786 30.4342C17.0968 30.4342 17.996 31.0582 18.5094 31.9999C18.6058 31.9857 18.6994 31.9659 18.7958 31.9488C18.2399 30.8767 17.233 30.1562 16.0786 30.1562Z" fill="#E23C18"/>
<path d="M16.0786 7.40931C22.2903 7.40931 27.9403 10.2769 32.124 14.9314C32.0843 14.384 32.019 13.845 31.9254 13.3118C27.668 9.03171 22.1286 6.43359 16.0786 6.43359C10.0286 6.43359 4.48915 9.03171 0.231749 13.3118C0.138149 13.8422 0.0729124 14.3811 0.0332031 14.9314C4.21686 10.274 9.86692 7.40931 16.0786 7.40931Z" fill="#E23C18"/>
<path d="M16.0791 19.375C11.1297 19.375 6.82971 22.6737 4.71094 27.4814C4.85843 27.6289 5.01159 27.7735 5.16759 27.9153C7.16157 23.2098 11.3027 19.9678 16.082 19.9678C20.8613 19.9678 24.9995 23.2098 26.9963 27.9153C27.1495 27.7735 27.3027 27.6289 27.453 27.4814C25.3342 22.6737 21.0343 19.375 16.0848 19.375H16.0791Z" fill="#E23C18"/>
<path d="M16.0799 17.2168C10.6171 17.2168 5.84343 20.7112 3.31055 25.8791C3.45804 26.0691 3.60837 26.2592 3.76437 26.4435C6.1526 21.3409 10.7759 17.8748 16.0827 17.8748C21.3896 17.8748 26.0129 21.3409 28.4011 26.4435C28.5571 26.2592 28.7075 26.072 28.855 25.8791C26.3221 20.7112 21.5484 17.2168 16.0856 17.2168H16.0799Z" fill="#E23C18"/>
<path d="M16.0794 8.5918C9.77132 8.5918 4.0702 11.6522 0 16.5592C0.0141819 17.0073 0.0425456 17.4526 0.090764 17.8923C4.02482 12.7443 9.73444 9.49944 16.0794 9.49944C22.4244 9.49944 28.134 12.7443 32.0681 17.8923C32.1163 17.4526 32.1475 17.0073 32.1588 16.5592C28.0886 11.6522 22.3847 8.5918 16.0794 8.5918Z" fill="#E23C18"/>
<path d="M6.89844 2.87892C9.78303 1.74153 12.8718 1.12604 16.0798 1.12604C19.2877 1.12604 22.3765 1.74153 25.2611 2.87892C22.6573 1.06648 19.4948 0 16.0798 0C12.6648 0 9.50223 1.06648 6.89844 2.87892Z" fill="#E23C18"/>
<path d="M1.38218 9.54459C1.0957 10.1856 0.851773 10.8465 0.650391 11.5272C4.9163 7.63854 10.2714 5.31271 16.0803 5.31271C21.8892 5.31271 27.2443 7.63854 31.5102 11.5272C31.3088 10.8465 31.0649 10.1828 30.7784 9.54459C26.5834 6.22319 21.5233 4.28027 16.0803 4.28027C10.6373 4.28027 5.57718 6.22319 1.38218 9.54459Z" fill="#E23C18"/>
<path d="M16.0794 15.0615C10.2024 15.0615 5.03168 18.6382 2.07617 24.016C2.21232 24.2571 2.35697 24.4953 2.50446 24.7279C5.2983 19.3671 10.3385 15.7791 16.0794 15.7791C21.8202 15.7791 26.8604 19.3643 29.6543 24.7279C29.8018 24.4953 29.9464 24.2571 30.0826 24.016C27.1271 18.6354 21.9563 15.0615 16.0794 15.0615Z" fill="#E23C18"/>
<path d="M16.08 12.9053C9.90525 12.9053 4.43105 16.4422 1.05859 21.8682C1.17489 22.1689 1.29969 22.4639 1.433 22.756C4.63526 17.2846 10.0045 13.6881 16.08 13.6881C22.1556 13.6881 27.5248 17.2846 30.7271 22.756C30.8604 22.4639 30.9852 22.1689 31.1015 21.8682C27.7319 16.4451 22.2548 12.9053 16.08 12.9053Z" fill="#E23C18"/>
<path d="M16.0794 10.7471C9.74861 10.7471 4.08153 14.1138 0.326172 19.3895C0.402754 19.7611 0.496354 20.127 0.598464 20.4872C4.18932 15.0811 9.79116 11.5923 16.0766 11.5923C22.362 11.5923 27.9638 15.0811 31.5547 20.4872C31.6568 20.127 31.7504 19.7611 31.827 19.3895C28.0716 14.1138 22.4045 10.7471 16.0737 10.7471H16.0794Z" fill="#E23C18"/>
</g>
<defs>
<clipPath id="clip0_102_230">
<rect width="32.1617" height="32" fill="white"/>
</clipPath>
</defs>
</svg>

<svg width="33" height="32" fill="none" xmlns="http://www.w3.org/2000/svg"><g clip-path="url(#a)" fill="#E23C18"><path d="M16.078 25.846c-2.898 0-5.394 2.059-6.46 4.986.121.054.246.108.37.159 1.005-2.783 3.356-4.74 6.09-4.74 2.735 0 5.086 1.957 6.09 4.74.125-.051.25-.105.372-.159-1.067-2.927-3.56-4.986-6.462-4.986Z"/><path d="M16.08 21.531c-4.345 0-8.1 2.99-9.834 7.295.145.111.292.222.44.33 1.628-4.181 5.224-7.094 9.394-7.094s7.763 2.913 9.394 7.093c.147-.107.295-.215.44-.329-1.734-4.305-5.489-7.295-9.834-7.295Z"/><path d="M16.08 23.686c-3.662 0-6.813 2.579-8.191 6.255.136.08.272.159.408.235 1.296-3.537 4.297-6.021 7.783-6.021 3.486 0 6.487 2.484 7.783 6.021.14-.076.275-.156.409-.235-1.379-3.676-4.53-6.255-8.192-6.255Z"/><path d="M16.079 28c-2.065 0-3.844 1.44-4.644 3.5.108.034.219.063.33.094.751-1.918 2.4-3.254 4.314-3.254 1.914 0 3.56 1.336 4.314 3.254.11-.032.221-.06.329-.094-.797-2.06-2.576-3.5-4.643-3.5ZM16.078 3.219c4.976 0 9.639 1.588 13.65 4.348a16.157 16.157 0 0 0-1.862-2.428c-3.587-1.937-7.578-3.018-11.785-3.018-4.206 0-8.2 1.084-11.785 3.018a16.155 16.155 0 0 0-1.86 2.428c4.007-2.76 8.67-4.348 13.648-4.348h-.006Z"/><path d="M16.079 30.156c-1.155 0-2.162.72-2.718 1.793.097.017.19.037.287.05.516-.94 1.412-1.565 2.43-1.565 1.019 0 1.918.624 2.431 1.566.097-.014.19-.034.287-.051-.556-1.072-1.563-1.793-2.717-1.793ZM16.079 7.41c6.211 0 11.861 2.867 16.045 7.521a16.08 16.08 0 0 0-.199-1.62c-4.257-4.28-9.796-6.877-15.846-6.877-6.05 0-11.59 2.598-15.847 6.878-.094.53-.16 1.07-.199 1.62 4.184-4.658 9.834-7.523 16.046-7.523ZM16.08 19.375c-4.95 0-9.25 3.299-11.37 8.106.148.148.302.292.458.434 1.994-4.705 6.135-7.947 10.914-7.947 4.78 0 8.918 3.242 10.914 7.947.154-.142.307-.286.457-.434-2.119-4.807-6.419-8.106-11.368-8.106h-.006Z"/><path d="M16.08 17.217c-5.463 0-10.237 3.494-12.77 8.662.148.19.298.38.454.564 2.389-5.102 7.012-8.568 12.319-8.568 5.307 0 9.93 3.466 12.318 8.569.156-.185.306-.372.454-.565-2.533-5.168-7.307-8.662-12.77-8.662h-.005Z"/><path d="M16.08 8.592c-6.309 0-12.01 3.06-16.08 7.967.014.448.043.894.09 1.333C4.026 12.744 9.735 9.5 16.08 9.5c6.344 0 12.054 3.245 15.988 8.393.048-.44.08-.885.09-1.333-4.07-4.907-9.773-7.967-16.079-7.967ZM6.898 2.879a24.945 24.945 0 0 1 9.182-1.753c3.208 0 6.297.616 9.181 1.753A16.014 16.014 0 0 0 16.08 0a16.014 16.014 0 0 0-9.182 2.879Z"/><path d="M1.382 9.545c-.286.64-.53 1.302-.732 1.982 4.266-3.888 9.621-6.214 15.43-6.214 5.81 0 11.164 2.326 15.43 6.214a15.764 15.764 0 0 0-.732-1.982C26.583 6.223 21.523 4.28 16.08 4.28S5.577 6.223 1.382 9.545ZM16.08 15.062c-5.878 0-11.048 3.576-14.004 8.954.136.241.281.48.428.712 2.794-5.36 7.835-8.949 13.575-8.949 5.741 0 10.781 3.585 13.575 8.949.148-.233.292-.47.429-.712-2.956-5.38-8.127-8.954-14.004-8.954Z"/><path d="M16.08 12.905c-6.175 0-11.649 3.537-15.021 8.963.116.3.24.596.374.888 3.202-5.471 8.572-9.068 14.647-9.068 6.076 0 11.445 3.597 14.647 9.068.133-.292.258-.587.375-.888-3.37-5.423-8.847-8.963-15.022-8.963Z"/><path d="M16.08 10.747c-6.331 0-11.998 3.367-15.754 8.643.077.371.17.737.272 1.097 3.591-5.406 9.193-8.895 15.479-8.895 6.285 0 11.887 3.49 15.478 8.895.102-.36.195-.726.272-1.097-3.755-5.276-9.423-8.643-15.753-8.643h.005Z"/></g><defs><clipPath id="a"><path fill="#fff" d="M0 0h32.162v32H0z"/></clipPath></defs></svg>
